build/img/sprites/07.svg

<svg width="65" height="32" viewBox="0 0 65 32" fill="none" xmlns="http://www.w3.org/2000/svg">
<mask id="path-1-outside-1_627_4210" maskUnits="userSpaceOnUse" x="0" y="0" width="65" height="32" fill="black">
<rect fill="white" width="65" height="32"/>
<path d="M13.84 30.64C11.36 30.64 9.16 30.0667 7.24 28.92C5.34667 27.7733 3.85333 26.1067 2.76 23.92C1.69333 21.7333 1.16 19.0933 1.16 16C1.16 12.9067 1.69333 10.2667 2.76 8.08C3.85333 5.89333 5.34667 4.22666 7.24 3.08C9.16 1.93333 11.36 1.36 13.84 1.36C16.32 1.36 18.5067 1.93333 20.4 3.08C22.32 4.22666 23.8133 5.89333 24.88 8.08C25.9733 10.2667 26.52 12.9067 26.52 16C26.52 19.0933 25.9733 21.7333 24.88 23.92C23.8133 26.1067 22.32 27.7733 20.4 28.92C18.5067 30.0667 16.32 30.64 13.84 30.64ZM13.84 23.08C14.4533 23.08 15 22.8667 15.48 22.44C15.96 22.0133 16.3333 21.28 16.6 20.24C16.8933 19.2 17.04 17.7867 17.04 16C17.04 14.1867 16.8933 12.7733 16.6 11.76C16.3333 10.72 15.96 9.98667 15.48 9.56C15 9.13333 14.4533 8.92 13.84 8.92C13.2267 8.92 12.68 9.13333 12.2 9.56C11.72 9.98667 11.3333 10.72 11.04 11.76C10.7733 12.7733 10.64 14.1867 10.64 16C10.64 17.7867 10.7733 19.2 11.04 20.24C11.3333 21.28 11.72 22.0133 12.2 22.44C12.68 22.8667 13.2267 23.08 13.84 23.08ZM32.8553 30L43.4153 5.36L45.9353 9.32H32.6553L36.3353 5.04V13.4H28.5353V2H52.4953V7.8L43.1753 30H32.8553ZM57.7597 30.4C56.2664 30.4 55.013 29.92 53.9997 28.96C52.9864 27.9733 52.4797 26.72 52.4797 25.2C52.4797 23.6533 52.9864 22.4133 53.9997 21.48C55.013 20.5467 56.2664 20.08 57.7597 20.08C59.253 20.08 60.5064 20.5467 61.5197 21.48C62.533 22.4133 63.0397 23.6533 63.0397 25.2C63.0397 26.72 62.533 27.9733 61.5197 28.96C60.5064 29.92 59.253 30.4 57.7597 30.4Z"/>
</mask>
<path d="M7.24 28.92L6.72196 29.7754L6.72726 29.7785L7.24 28.92ZM2.76 23.92L1.86119 24.3584L1.86557 24.3672L2.76 23.92ZM2.76 8.08L1.86553 7.63276L1.86123 7.64157L2.76 8.08ZM7.24 3.08L6.72725 2.22144L6.72197 2.22464L7.24 3.08ZM20.4 3.08L19.882 3.93537L19.8873 3.93854L20.4 3.08ZM24.88 8.08L23.9812 8.51844L23.9856 8.52721L24.88 8.08ZM24.88 23.92L23.9855 23.4728L23.9812 23.4816L24.88 23.92ZM20.4 28.92L19.8873 28.0614L19.882 28.0646L20.4 28.92ZM16.6 20.24L15.6376 19.9685L15.6343 19.98L15.6313 19.9916L16.6 20.24ZM16.6 11.76L15.6313 12.0084L15.6352 12.0233L15.6394 12.0381L16.6 11.76ZM15.48 9.56L16.1444 8.81259L16.1444 8.81259L15.48 9.56ZM12.2 9.56L11.5356 8.81259V8.81259L12.2 9.56ZM11.04 11.76L10.0776 11.4885L10.0752 11.497L10.0729 11.5055L11.04 11.76ZM11.04 20.24L10.0713 20.4884L10.0743 20.5L10.0776 20.5115L11.04 20.24ZM13.84 29.64C11.5203 29.64 9.50125 29.1057 7.75274 28.0615L6.72726 29.7785C8.81876 31.0276 11.1997 31.64 13.84 31.64V29.64ZM7.75804 28.0646C6.04278 27.0258 4.67246 25.5089 3.65443 23.4728L1.86557 24.3672C3.03421 26.7045 4.65055 28.5208 6.72197 29.7754L7.75804 28.0646ZM3.65877 23.4816C2.67427 21.4634 2.16 18.9814 2.16 16H0.16C0.16 19.2053 0.712395 22.0033 1.86123 24.3584L3.65877 23.4816ZM2.16 16C2.16 13.0186 2.67427 10.5366 3.65877 8.51842L1.86123 7.64157C0.712395 9.99669 0.16 12.7947 0.16 16H2.16ZM3.65443 8.52721C4.67246 6.49114 6.04278 4.97417 7.75803 3.93536L6.72197 2.22464C4.65055 3.47916 3.03421 5.29552 1.86557 7.63278L3.65443 8.52721ZM7.75274 3.93854C9.50125 2.8943 11.5203 2.36 13.84 2.36V0.359999C11.1997 0.359999 8.81876 0.972368 6.72726 2.22145L7.75274 3.93854ZM13.84 2.36C16.1599 2.36 18.1631 2.89435 19.882 3.93536L20.918 2.22464C18.8502 0.97231 16.4801 0.359999 13.84 0.359999V2.36ZM19.8873 3.93854C21.6259 4.97688 22.9919 6.49031 23.9812 8.51842L25.7788 7.64157C24.6348 5.29635 23.0141 3.47645 20.9127 2.22146L19.8873 3.93854ZM23.9856 8.52721C24.9935 10.5431 25.52 13.0218 25.52 16H27.52C27.52 12.7915 26.9531 9.99019 25.7744 7.63278L23.9856 8.52721ZM25.52 16C25.52 18.9782 24.9935 21.4569 23.9856 23.4728L25.7744 24.3672C26.9531 22.0098 27.52 19.2085 27.52 16H25.52ZM23.9812 23.4816C22.9919 25.5097 21.6259 27.0231 19.8873 28.0615L20.9127 29.7785C23.0141 28.5235 24.6348 26.7036 25.7788 24.3584L23.9812 23.4816ZM19.882 28.0646C18.1631 29.1056 16.1599 29.64 13.84 29.64V31.64C16.4801 31.64 18.8502 31.0277 20.918 29.7754L19.882 28.0646ZM13.84 24.08C14.7106 24.08 15.4907 23.7684 16.1444 23.1874L14.8156 21.6926C14.5093 21.9649 14.1961 22.08 13.84 22.08V24.08ZM16.1444 23.1874C16.843 22.5664 17.2824 21.6049 17.5687 20.4884L15.6313 19.9916C15.3843 20.9551 15.077 21.4603 14.8156 21.6926L16.1444 23.1874ZM17.5625 20.5115C17.8916 19.3444 18.04 17.827 18.04 16H16.04C16.04 17.7464 15.8951 19.0555 15.6376 19.9685L17.5625 20.5115ZM18.04 16C18.04 14.1497 17.8922 12.6277 17.5606 11.4819L15.6394 12.0381C15.8944 12.919 16.04 14.2236 16.04 16H18.04ZM17.5687 11.5116C17.2824 10.3951 16.843 9.43364 16.1444 8.81259L14.8156 10.3074C15.077 10.5397 15.3843 11.0449 15.6313 12.0084L17.5687 11.5116ZM16.1444 8.81259C15.4907 8.23159 14.7106 7.92 13.84 7.92V9.92C14.1961 9.92 14.5093 10.0351 14.8156 10.3074L16.1444 8.81259ZM13.84 7.92C12.9694 7.92 12.1893 8.23159 11.5356 8.81259L12.8644 10.3074C13.1707 10.0351 13.4839 9.92 13.84 9.92V7.92ZM11.5356 8.81259C10.8456 9.42599 10.3912 10.3765 10.0776 11.4885L12.0025 12.0315C12.2755 11.0635 12.5944 10.5473 12.8644 10.3074L11.5356 8.81259ZM10.0729 11.5055C9.77415 12.6409 9.64 14.1535 9.64 16H11.64C11.64 14.2198 11.7725 12.9058 12.0071 12.0145L10.0729 11.5055ZM9.64 16C9.64 17.8229 9.77468 19.3314 10.0713 20.4884L12.0087 19.9916C11.772 19.0686 11.64 17.7504 11.64 16H9.64ZM10.0776 20.5115C10.3912 21.6235 10.8456 22.574 11.5356 23.1874L12.8644 21.6926C12.5944 21.4527 12.2755 20.9365 12.0025 19.9685L10.0776 20.5115ZM11.5356 23.1874C12.1893 23.7684 12.9694 24.08 13.84 24.08V22.08C13.4839 22.08 13.1707 21.9649 12.8644 21.6926L11.5356 23.1874ZM32.8553 30L31.9362 29.6061L31.3388 31H32.8553V30ZM43.4153 5.36L44.259 4.82312L43.2422 3.22534L42.4962 4.96608L43.4153 5.36ZM45.9353 9.32V10.32H47.757L46.779 8.78312L45.9353 9.32ZM32.6553 9.32L31.8971 8.66804L30.4767 10.32H32.6553V9.32ZM36.3353 5.04H37.3353V2.34311L35.5771 4.38804L36.3353 5.04ZM36.3353 13.4V14.4H37.3353V13.4H36.3353ZM28.5353 13.4H27.5353V14.4H28.5353V13.4ZM28.5353 2V0.999998H27.5353V2H28.5353ZM52.4953 2H53.4953V0.999998H52.4953V2ZM52.4953 7.8L53.4174 8.18709L53.4953 8.0014V7.8H52.4953ZM43.1753 30V31H43.84L44.0974 30.3871L43.1753 30ZM33.7745 30.3939L44.3345 5.75392L42.4962 4.96608L31.9362 29.6061L33.7745 30.3939ZM42.5717 5.89687L45.0917 9.85687L46.779 8.78312L44.259 4.82312L42.5717 5.89687ZM45.9353 8.32H32.6553V10.32H45.9353V8.32ZM33.4136 9.97196L37.0936 5.69196L35.5771 4.38804L31.8971 8.66804L33.4136 9.97196ZM35.3353 5.04V13.4H37.3353V5.04H35.3353ZM36.3353 12.4H28.5353V14.4H36.3353V12.4ZM29.5353 13.4V2H27.5353V13.4H29.5353ZM28.5353 3H52.4953V0.999998H28.5353V3ZM51.4953 2V7.8H53.4953V2H51.4953ZM51.5733 7.41291L42.2533 29.6129L44.0974 30.3871L53.4174 8.18709L51.5733 7.41291ZM43.1753 29H32.8553V31H43.1753V29ZM53.9997 28.96L53.302 29.6765L53.3119 29.686L53.9997 28.96ZM53.9997 21.48L53.3222 20.7445V20.7445L53.9997 21.48ZM61.5197 21.48L62.1972 20.7445V20.7445L61.5197 21.48ZM61.5197 28.96L62.2075 29.686L62.2173 29.6765L61.5197 28.96ZM57.7597 29.4C56.5026 29.4 55.5013 29.005 54.6874 28.234L53.3119 29.686C54.5248 30.835 56.0301 31.4 57.7597 31.4V29.4ZM54.6973 28.2435C53.8928 27.4602 53.4797 26.4725 53.4797 25.2H51.4797C51.4797 26.9675 52.0799 28.4865 53.3021 29.6765L54.6973 28.2435ZM53.4797 25.2C53.4797 23.8949 53.8957 22.9353 54.6772 22.2155L53.3222 20.7445C52.077 21.8914 51.4797 23.4118 51.4797 25.2H53.4797ZM54.6772 22.2155C55.4896 21.4672 56.4944 21.08 57.7597 21.08V19.08C56.0383 19.08 54.5364 19.6261 53.3222 20.7445L54.6772 22.2155ZM57.7597 21.08C59.025 21.08 60.0297 21.4672 60.8422 22.2155L62.1972 20.7445C60.983 19.6261 59.4811 19.08 57.7597 19.08V21.08ZM60.8422 22.2155C61.6236 22.9353 62.0397 23.8949 62.0397 25.2H64.0397C64.0397 23.4118 63.4424 21.8914 62.1972 20.7445L60.8422 22.2155ZM62.0397 25.2C62.0397 26.4725 61.6266 27.4602 60.8221 28.2435L62.2173 29.6765C63.4394 28.4865 64.0397 26.9675 64.0397 25.2H62.0397ZM60.8319 28.234C60.0181 29.005 59.0168 29.4 57.7597 29.4V31.4C59.4893 31.4 60.9946 30.835 62.2074 29.686L60.8319 28.234Z" fill="#78213A" mask="url(#path-1-outside-1_627_4210)"/>
</svg>

<svg width="65" height="32" viewBox="0 0 65 32" fill="none" xmlns="http://www.w3.org/2000/svg"><mask id="path-1-outside-1_627_4210" maskUnits="userSpaceOnUse" x="0" y="0" width="65" height="32" fill="#000"><path fill="#fff" d="M0 0h65v32H0z"/><path d="M13.84 30.64c-2.48 0-4.68-.573-6.6-1.72-1.893-1.147-3.387-2.813-4.48-5-1.067-2.187-1.6-4.827-1.6-7.92s.533-5.733 1.6-7.92c1.093-2.187 2.587-3.853 4.48-5 1.92-1.147 4.12-1.72 6.6-1.72 2.48 0 4.667.573 6.56 1.72 1.92 1.147 3.413 2.813 4.48 5 1.093 2.187 1.64 4.827 1.64 7.92s-.547 5.733-1.64 7.92c-1.067 2.187-2.56 3.853-4.48 5-1.893 1.147-4.08 1.72-6.56 1.72zm0-7.56c.613 0 1.16-.213 1.64-.64.48-.427.853-1.16 1.12-2.2.293-1.04.44-2.453.44-4.24 0-1.813-.147-3.227-.44-4.24-.267-1.04-.64-1.773-1.12-2.2-.48-.427-1.027-.64-1.64-.64s-1.16.213-1.64.64c-.48.427-.867 1.16-1.16 2.2-.267 1.013-.4 2.427-.4 4.24 0 1.787.133 3.2.4 4.24.293 1.04.68 1.773 1.16 2.2.48.427 1.027.64 1.64.64zM32.855 30l10.56-24.64 2.52 3.96h-13.28l3.68-4.28v8.36h-7.8V2h23.96v5.8L43.175 30h-10.32zm24.905.4c-1.494 0-2.747-.48-3.76-1.44-1.014-.987-1.52-2.24-1.52-3.76 0-1.547.506-2.787 1.52-3.72 1.013-.933 2.266-1.4 3.76-1.4 1.493 0 2.746.467 3.76 1.4 1.013.933 1.52 2.173 1.52 3.72 0 1.52-.507 2.773-1.52 3.76-1.014.96-2.267 1.44-3.76 1.44z"/></mask><path d="M7.24 28.92l-.518.855.005.004.513-.859zm-4.48-5l-.899.438.005.01.894-.448zm0-15.84l-.894-.447-.005.009.899.438zm4.48-5l-.513-.859-.005.004.518.855zm13.16 0l-.518.855.005.004.513-.859zm4.48 5l-.899.438.005.01.894-.448zm0 15.84l-.895-.447-.004.009.899.438zm-4.48 5l-.513-.859-.005.004.518.855zm-3.8-8.68l-.962-.271-.004.011-.003.012.969.248zm0-8.48l-.969.248.004.015.004.015.961-.278zm-1.12-2.2l.664-.747-.664.747zm-3.28 0l-.664-.747.664.747zm-1.16 2.2l-.962-.271-.003.008-.002.008.967.255zm0 8.48l-.969.248.003.012.004.012.962-.272zm2.8 9.4c-2.32 0-4.339-.534-6.087-1.579L6.727 29.78c2.093 1.247 4.473 1.86 7.113 1.86v-2zm-6.082-1.575c-1.715-1.04-3.086-2.556-4.104-4.592l-1.788.894c1.168 2.337 2.785 4.154 4.856 5.408l1.036-1.71zm-4.1-4.583C2.675 21.463 2.16 18.982 2.16 16h-2c0 3.205.552 6.003 1.701 8.358l1.798-.876zM2.16 16c0-2.981.514-5.463 1.499-7.482L1.86 7.642C.712 9.997.16 12.795.16 16h2zm1.494-7.473c1.018-2.036 2.389-3.553 4.104-4.592l-1.036-1.71c-2.071 1.254-3.688 3.07-4.856 5.408l1.788.894zM7.753 3.94C9.5 2.894 11.52 2.36 13.84 2.36v-2c-2.64 0-5.021.612-7.113 1.861L7.753 3.94zm6.087-1.58c2.32 0 4.323.534 6.042 1.575l1.036-1.71C18.85.972 16.48.36 13.84.36v2zm6.047 1.579c1.739 1.038 3.105 2.551 4.094 4.58l1.798-.877c-1.144-2.346-2.765-4.166-4.866-5.42l-1.026 1.717zm4.099 4.588c1.008 2.016 1.534 4.495 1.534 7.473h2c0-3.209-.567-6.01-1.746-8.367l-1.788.894zM25.52 16c0 2.978-.526 5.457-1.534 7.473l1.788.894c1.18-2.357 1.746-5.159 1.746-8.367h-2zm-1.539 7.482c-.99 2.028-2.355 3.541-4.094 4.58l1.026 1.716c2.101-1.255 3.722-3.074 4.866-5.42l-1.798-.876zm-4.099 4.583c-1.719 1.04-3.722 1.575-6.042 1.575v2c2.64 0 5.01-.612 7.078-1.865l-1.036-1.71zM13.84 24.08c.87 0 1.65-.312 2.304-.893l-1.328-1.494c-.307.272-.62.387-.976.387v2zm2.304-.893c.699-.62 1.138-1.582 1.425-2.699l-1.938-.496c-.247.963-.554 1.468-.815 1.7l1.328 1.495zm1.419-2.675c.329-1.168.477-2.685.477-4.512h-2c0 1.746-.145 3.055-.402 3.968l1.925.544zM18.04 16c0-1.85-.148-3.372-.48-4.518l-1.92.556c.254.881.4 2.186.4 3.962h2zm-.471-4.488c-.287-1.117-.726-2.078-1.425-2.7l-1.328 1.495c.261.233.568.738.815 1.701l1.938-.496zm-1.425-2.7c-.653-.58-1.433-.892-2.304-.892v2c.356 0 .67.115.976.387l1.328-1.494zM13.84 7.92c-.87 0-1.65.312-2.304.893l1.328 1.494c.307-.272.62-.387.976-.387v-2zm-2.304.893c-.69.613-1.145 1.563-1.458 2.675l1.925.543c.272-.968.591-1.484.861-1.724l-1.328-1.494zm-1.463 2.692C9.774 12.641 9.64 14.153 9.64 16h2c0-1.78.133-3.094.367-3.986l-1.934-.508zM9.64 16c0 1.823.135 3.331.431 4.488l1.938-.496c-.237-.923-.369-2.242-.369-3.992h-2zm.438 4.512c.313 1.111.768 2.062 1.458 2.675l1.328-1.494c-.27-.24-.589-.757-.862-1.725l-1.924.544zm1.458 2.675c.653.581 1.433.893 2.304.893v-2c-.356 0-.67-.115-.976-.387l-1.328 1.494zM32.856 30l-.92-.394L31.34 31h1.516v-1zm10.56-24.64l.843-.537-1.017-1.598-.746 1.741.92.394zm2.52 3.96v1h1.821l-.978-1.537-.844.537zm-13.28 0l-.759-.652-1.42 1.652h2.178v-1zm3.68-4.28h1V2.343l-1.759 2.045.758.652zm0 8.36v1h1v-1h-1zm-7.8 0h-1v1h1v-1zm0-11.4V1h-1v1h1zm23.96 0h1V1h-1v1zm0 5.8l.921.387.078-.186V7.8h-1zM43.175 30v1h.664l.257-.613-.922-.387zm-9.401.394l10.56-24.64-1.839-.788-10.56 24.64 1.839.788zm8.797-24.497l2.52 3.96 1.687-1.074-2.52-3.96-1.687 1.074zm3.363 2.423h-13.28v2h13.28v-2zm-12.52 1.652l3.68-4.28-1.517-1.304-3.68 4.28 1.517 1.304zm1.921-4.932v8.36h2V5.04h-2zm1 7.36h-7.8v2h7.8v-2zm-6.8 1V2h-2v11.4h2zm-1-10.4h23.96V1h-23.96v2zm22.96-1v5.8h2V2h-2zm.078 5.413l-9.32 22.2 1.844.774 9.32-22.2-1.844-.774zM43.175 29h-10.32v2h10.32v-2zM54 28.96l-.698.716.01.01.688-.726zm0-7.48l-.678-.736.678.736zm7.52 0l.677-.736-.677.736zm0 7.48l.688.726.01-.01-.698-.716zm-3.76.44c-1.257 0-2.259-.395-3.073-1.166l-1.375 1.452c1.213 1.149 2.718 1.714 4.448 1.714v-2zm-3.063-1.156c-.804-.784-1.217-1.771-1.217-3.044h-2c0 1.768.6 3.287 1.822 4.477l1.395-1.433zM53.48 25.2c0-1.305.416-2.265 1.197-2.985l-1.355-1.47c-1.245 1.146-1.842 2.667-1.842 4.455h2zm1.197-2.985c.813-.748 1.817-1.135 3.083-1.135v-2c-1.722 0-3.224.546-4.438 1.665l1.355 1.47zm3.083-1.135c1.265 0 2.27.387 3.082 1.136l1.355-1.472c-1.214-1.118-2.716-1.664-4.437-1.664v2zm3.082 1.136c.782.72 1.198 1.679 1.198 2.984h2c0-1.788-.598-3.309-1.843-4.456l-1.355 1.471zM62.04 25.2c0 1.273-.413 2.26-1.218 3.044l1.395 1.433c1.222-1.19 1.823-2.71 1.823-4.477h-2zm-1.208 3.034c-.814.771-1.815 1.166-3.072 1.166v2c1.73 0 3.235-.565 4.447-1.714l-1.375-1.452z" fill="#78213A" mask="url(#path-1-outside-1_627_4210)"/></svg>
